flaticon/household/coffee-machine.svg

<svg xmlns="http://www.w3.org/2000/svg" width="32" height="32" viewBox="0 0 24 24">
    <path d="M 7 8.398438 L 16.601562 8.398438 L 16.601562 1.601562 L 7 1.601562 Z M 7.800781 2.398438 L 15.800781 2.398438 L 15.800781 7.601562 L 7.800781 7.601562 Z M 7.800781 2.398438"/>
    <path d="M 22.199219 17.601562 C 22.421875 17.601562 22.601562 17.421875 22.601562 17.199219 L 22.601562 8.410156 C 23.101562 7.746094 23.398438 6.925781 23.398438 6.03125 L 23.398438 2.097656 C 23.398438 0.941406 22.457031 0 21.300781 0 L 2.699219 0 C 1.542969 0 0.601562 0.941406 0.601562 2.097656 L 0.601562 6.03125 C 0.601562 7.332031 1.230469 8.484375 2.199219 9.207031 L 2.199219 20.816406 C 1.304688 20.894531 0.601562 21.640625 0.601562 22.554688 L 0.601562 24 L 23.398438 24 L 23.398438 22.554688 C 23.398438 21.585938 22.613281 20.800781 21.644531 20.800781 L 21.398438 20.800781 L 21.398438 9.472656 C 21.539062 9.394531 21.671875 9.304688 21.800781 9.207031 L 21.800781 17.199219 C 21.800781 17.421875 21.980469 17.601562 22.199219 17.601562 Z M 21.644531 21.601562 C 22.171875 21.601562 22.601562 22.027344 22.601562 22.554688 L 22.601562 23.199219 L 1.398438 23.199219 L 1.398438 22.554688 C 1.398438 22.027344 1.828125 21.601562 2.355469 21.601562 Z M 9 19.390625 L 9 16.398438 L 14.601562 16.398438 L 14.601562 19.390625 C 14.601562 20.167969 13.96875 20.800781 13.191406 20.800781 L 10.410156 20.800781 C 9.632812 20.800781 9 20.167969 9 19.390625 Z M 20.601562 20.800781 L 14.890625 20.800781 C 15.207031 20.417969 15.398438 19.925781 15.398438 19.390625 L 15.398438 15.601562 L 7 15.601562 C 5.898438 15.601562 5 16.496094 5 17.601562 C 5 18.703125 5.898438 19.601562 7 19.601562 L 8.210938 19.601562 C 8.253906 20.054688 8.433594 20.46875 8.707031 20.800781 L 3 20.800781 L 3 9.675781 C 3.003906 9.675781 3.007812 9.679688 3.011719 9.679688 C 3.105469 9.71875 3.203125 9.753906 3.300781 9.789062 C 3.328125 9.796875 3.355469 9.808594 3.382812 9.816406 C 3.5 9.855469 3.621094 9.886719 3.742188 9.910156 C 3.75 9.914062 3.757812 9.917969 3.765625 9.917969 C 4.023438 9.972656 4.292969 10 4.570312 10 L 8.601562 10 L 8.601562 12.800781 C 8.601562 13.683594 9.316406 14.398438 10.199219 14.398438 L 10.601562 14.398438 L 10.601562 14.800781 C 10.601562 15.019531 10.777344 15.199219 11 15.199219 C 11.222656 15.199219 11.398438 15.019531 11.398438 14.800781 L 11.398438 14.398438 L 12.199219 14.398438 L 12.199219 14.800781 C 12.199219 15.019531 12.378906 15.199219 12.601562 15.199219 C 12.820312 15.199219 13 15.019531 13 14.800781 L 13 14.398438 L 13.398438 14.398438 C 14.144531 14.398438 14.765625 13.886719 14.941406 13.199219 L 17.800781 13.199219 C 18.460938 13.199219 19 12.660156 19 12 C 19 11.339844 18.460938 10.800781 17.800781 10.800781 L 15 10.800781 L 15 10 L 19.429688 10 C 19.613281 10 19.789062 9.984375 19.964844 9.960938 C 20.003906 9.953125 20.042969 9.949219 20.085938 9.941406 C 20.261719 9.910156 20.433594 9.875 20.601562 9.824219 Z M 7 18.800781 C 6.339844 18.800781 5.800781 18.261719 5.800781 17.601562 C 5.800781 16.9375 6.339844 16.398438 7 16.398438 L 8.199219 16.398438 L 8.199219 18.800781 Z M 13.523438 12.398438 C 13.457031 12.398438 13.398438 12.34375 13.398438 12.277344 L 13.398438 11.722656 C 13.398438 11.65625 13.457031 11.597656 13.523438 11.597656 L 17.800781 11.597656 C 18.019531 11.597656 18.199219 11.777344 18.199219 12 C 18.199219 12.21875 18.019531 12.398438 17.800781 12.398438 Z M 14.199219 10.800781 L 13.523438 10.800781 C 13.015625 10.800781 12.601562 11.214844 12.601562 11.722656 L 12.601562 12.277344 C 12.601562 12.785156 13.015625 13.199219 13.523438 13.199219 L 14.09375 13.199219 C 13.953125 13.441406 13.695312 13.601562 13.402344 13.601562 L 10.199219 13.601562 C 9.757812 13.601562 9.402344 13.242188 9.402344 12.800781 L 9.402344 10 L 14.199219 10 Z M 20.941406 8.816406 L 20.933594 8.820312 C 20.894531 8.84375 20.851562 8.859375 20.808594 8.882812 C 20.710938 8.929688 20.613281 8.96875 20.511719 9.007812 C 20.496094 9.011719 20.484375 9.015625 20.46875 9.023438 C 20.375 9.054688 20.285156 9.082031 20.191406 9.105469 C 20.167969 9.109375 20.144531 9.117188 20.121094 9.121094 C 20.035156 9.140625 19.945312 9.15625 19.855469 9.167969 C 19.828125 9.171875 19.804688 9.179688 19.777344 9.179688 C 19.664062 9.191406 19.546875 9.199219 19.429688 9.199219 L 4.570312 9.199219 C 4.429688 9.199219 4.289062 9.1875 4.152344 9.167969 C 4.117188 9.164062 4.085938 9.160156 4.050781 9.152344 C 3.929688 9.132812 3.808594 9.109375 3.691406 9.074219 C 3.675781 9.070312 3.660156 9.066406 3.644531 9.0625 C 3.515625 9.023438 3.386719 8.972656 3.265625 8.914062 C 3.234375 8.902344 3.207031 8.886719 3.175781 8.875 C 3.066406 8.820312 2.957031 8.757812 2.851562 8.691406 C 1.980469 8.125 1.398438 7.144531 1.398438 6.03125 L 1.398438 2.097656 C 1.398438 1.382812 1.984375 0.800781 2.699219 0.800781 L 21.300781 0.800781 C 22.015625 0.800781 22.601562 1.382812 22.601562 2.097656 L 22.601562 6.03125 C 22.601562 7.230469 21.929688 8.28125 20.941406 8.816406 Z M 20.941406 8.816406"/>
    <path d="M19.398438 1.199219C18.296875 1.199219 17.398438 2.097656 17.398438 3.199219 17.398438 4.304688 18.296875 5.199219 19.398438 5.199219 20.503906 5.199219 21.398438 4.304688 21.398438 3.199219 21.398438 2.097656 20.503906 1.199219 19.398438 1.199219zM19.398438 4.398438C18.738281 4.398438 18.199219 3.863281 18.199219 3.199219 18.199219 2.539062 18.738281 2 19.398438 2 20.0625 2 20.601562 2.539062 20.601562 3.199219 20.601562 3.863281 20.0625 4.398438 19.398438 4.398438zM19.398438 5.601562C18.519531 5.601562 17.800781 6.316406 17.800781 7.199219 17.800781 8.082031 18.519531 8.800781 19.398438 8.800781 20.28125 8.800781 21 8.082031 21 7.199219 21 6.316406 20.28125 5.601562 19.398438 5.601562zM19.398438 8C18.957031 8 18.601562 7.640625 18.601562 7.199219 18.601562 6.757812 18.957031 6.398438 19.398438 6.398438 19.839844 6.398438 20.199219 6.757812 20.199219 7.199219 20.199219 7.640625 19.839844 8 19.398438 8zM3 4.398438L6.199219 4.398438 6.199219 1.601562 3 1.601562zM3.800781 2.398438L5.398438 2.398438 5.398438 3.601562 3.800781 3.601562zM3 8.398438L6.199219 8.398438 6.199219 5.601562 3 5.601562zM3.800781 6.398438L5.398438 6.398438 5.398438 7.601562 3.800781 7.601562zM8.601562 4.398438C8.703125 4.398438 8.804688 4.359375 8.882812 4.28125L9.683594 3.484375C9.839844 3.328125 9.839844 3.074219 9.683594 2.917969 9.527344 2.761719 9.273438 2.761719 9.117188 2.917969L8.316406 3.71875C8.160156 3.875 8.160156 4.125 8.316406 4.28125 8.394531 4.359375 8.496094 4.398438 8.601562 4.398438zM11.117188 2.917969L8.316406 5.71875C8.160156 5.875 8.160156 6.125 8.316406 6.28125 8.394531 6.359375 8.496094 6.398438 8.601562 6.398438 8.703125 6.398438 8.804688 6.359375 8.882812 6.28125L11.683594 3.484375C11.839844 3.328125 11.839844 3.074219 11.683594 2.917969 11.527344 2.761719 11.273438 2.761719 11.117188 2.917969zM11.117188 2.917969"/>
</svg>

<svg xmlns="http://www.w3.org/2000/svg" width="32" height="32" viewBox="0 0 24 24">
    <path d="M7 8.398h9.602V1.602H7zm.8-6h8v5.204h-8zm0 0"/>
    <path d="M22.2 17.602c.222 0 .402-.18.402-.403V8.41c.5-.664.796-1.484.796-2.379V2.098A2.1 2.1 0 0 0 21.301 0H2.699A2.1 2.1 0 0 0 .602 2.098V6.03c0 1.301.628 2.453 1.597 3.176v11.61a1.747 1.747 0 0 0-1.597 1.738V24h22.796v-1.445c0-.97-.785-1.754-1.753-1.754h-.247V9.473c.141-.078.274-.168.403-.266v7.992c0 .223.18.403.398.403zm-.555 4c.527 0 .957.425.957.953v.644H1.398v-.644c0-.528.43-.953.957-.953zM9 19.39v-2.993h5.602v2.993c0 .777-.633 1.41-1.41 1.41H10.41c-.777 0-1.41-.633-1.41-1.41zm11.602 1.41H14.89c.316-.383.507-.875.507-1.41V15.6H7c-1.102 0-2 .895-2 2 0 1.102.898 2 2 2h1.21c.044.454.224.868.497 1.2H3V9.676c.004 0 .008.004.012.004.093.039.191.074.289.11.027.007.054.019.082.026.117.04.238.07.36.094.007.004.015.008.023.008.257.055.527.082.804.082h4.032v2.8c0 .884.714 1.598 1.597 1.598h.403v.403a.398.398 0 1 0 .796 0v-.403h.801v.403a.401.401 0 0 0 .801 0v-.403h.398c.747 0 1.368-.511 1.543-1.199h2.86C18.46 13.2 19 12.66 19 12s-.54-1.2-1.2-1.2H15V10h4.43c.183 0 .36-.016.535-.04.039-.007.078-.01.12-.019a4.49 4.49 0 0 0 .517-.117zM7 18.8a1.202 1.202 0 0 1 0-2.403h1.2v2.403zm6.523-6.403a.125.125 0 0 1-.125-.12v-.555c0-.067.059-.125.125-.125h4.278a.401.401 0 0 1 0 .8zm.676-1.597h-.676a.924.924 0 0 0-.921.922v.554c0 .508.414.922.921.922h.57a.8.8 0 0 1-.69.403h-3.204a.799.799 0 0 1-.797-.801V10H14.2zm6.742-1.985l-.007.004c-.04.024-.082.04-.125.063a3.97 3.97 0 0 1-.34.14 3.723 3.723 0 0 1-.278.082c-.023.004-.046.012-.07.016-.086.02-.176.035-.266.047-.027.004-.05.012-.078.012-.113.011-.23.02-.347.02H4.57a2.966 2.966 0 0 1-.52-.048 2.804 2.804 0 0 1-.359-.078l-.046-.011a2.628 2.628 0 0 1-.38-.149c-.03-.012-.058-.027-.09-.039a3.175 3.175 0 0 1-1.777-2.844V2.098C1.398 1.383 1.984.8 2.7.8h18.602c.715 0 1.3.582 1.3 1.297V6.03c0 1.2-.671 2.25-1.66 2.785zm0 0"/>
    <path d="M19.398 1.2c-1.101 0-2 .898-2 2a1.999 1.999 0 1 0 2-2zm0 3.198a1.2 1.2 0 0 1 0-2.398 1.2 1.2 0 0 1 0 2.398zm0 0M19.398 5.602a1.6 1.6 0 1 0 .004 3.199 1.6 1.6 0 0 0-.004-3.2zm0 2.398a.799.799 0 0 1-.796-.8.799.799 0 1 1 1.597 0c0 .44-.36.8-.8.8zm0 0M3 4.398h3.2V1.602H3zm.8-2h1.598v1.204H3.801zm0 0M3 8.398h3.2V5.602H3zm.8-2h1.598v1.204H3.801zm0 0M8.602 4.398c.101 0 .203-.039.28-.117l.802-.797a.4.4 0 0 0-.567-.566l-.8.8a.399.399 0 1 0 .285.68zm0 0M11.117 2.918l-2.8 2.8a.399.399 0 1 0 .566.563l2.8-2.797a.4.4 0 0 0-.566-.566zm0 0"/>
</svg>
